X: 5201
T: City Lights
P: Micah Thompson of Mile End
C: Ian R Muir
R: jig
B: RSCDS 52-01
Z: 2019 by John Chambers <jc:trillian.mit.edu>
N: Tune for the dance City Lights
M: 6/8
L: 1/8
K: D
A, |:\
"D"FEF "E/A7"GFG | "F#/D"ABd "Bm7"BAF | "G"GAB "F#/D"AFD | "Em7"B,GF "A7"E2A, |
"D"FEF "E/A7"GFG | "F#/D"ABd "Bm7"BAF | "Em7"GFG "A7"A,AG | "D"FD"G"D "D"D2"A7"A :|
"D"dcd "D7"AB=c | "G"Bdd "F#/D"Add | "G"Gdd "D"FdD | "Em7"B,GF "A7"E2A |
"D"dcd "D7"AB=c | "G"Bdd "F#/D"Add | "G"Gdd "A7"FdE| "D"FDD D2 "A7"A |
"Bm"dcd "A/D7"AB=c | "G"Bdd "F#/D7"Add | "G"Gdd "D"FdD | "Em7"B,GF "A7"E2A, |
"D"FEF "E/A7"GFG | "F#/D"ABd "Bm7"BAF | "Em7"GFG "A7"A,AG | "D"FD"G"D "D"D2 |]

